X:1
T:Every Night When the Sun Goes In
M:3/2
L:1/4
K:G
 z4 G G| B3 G/2G/2 A B| G3- G G d| d3 d/2d/2 =f e| d3- d d g| d3 B/2B/2 d B|\
 G2 d d e G| B3 G A B| G3 z2 z|
